src/icons/svg/briefcase.svg

<?xml version="1.0"?><svg xmlns="http://www.w3.org/2000/svg" width="40" height="40" viewBox="0 0 40 40"><path  d="m14.3 5.7h11.4v-2.8h-11.4v2.8z m25.7 14.3v10.7q0 1.5-1 2.5t-2.6 1.1h-32.8q-1.5 0-2.6-1.1t-1-2.5v-10.7h15v3.6q0 0.5 0.4 1t1 0.4h7.2q0.6 0 1-0.4t0.4-1v-3.6h15z m-17.1 0v2.9h-5.8v-2.9h5.8z m17.1-10.7v8.6h-40v-8.6q0-1.5 1.1-2.5t2.5-1.1h7.8v-3.6q0-0.8 0.7-1.5t1.5-0.6h12.8q0.9 0 1.5 0.6t0.7 1.5v3.6h7.8q1.5 0 2.6 1.1t1 2.5z"></path></svg>

<svg xmlns="http://www.w3.org/2000/svg" width="40" height="40" viewBox="0 0 40 40"><path d="M14.3 5.7h11.4V2.9H14.3v2.8zM40 20v10.7q0 1.5-1 2.5t-2.6 1.1H3.6q-1.5 0-2.6-1.1t-1-2.5V20h15v3.6q0 .5.4 1t1 .4h7.2q.6 0 1-.4t.4-1V20h15zm-17.1 0v2.9h-5.8V20h5.8zM40 9.3v8.6H0V9.3q0-1.5 1.1-2.5t2.5-1.1h7.8V2.1q0-.8.7-1.5t1.5-.6h12.8q.9 0 1.5.6t.7 1.5v3.6h7.8q1.5 0 2.6 1.1t1 2.5z"/></svg>
